img/svg/16/net/crazybrowser.svg

<svg xmlns="http://www.w3.org/2000/svg" viewBox="0 0 16 16" enable-background="new 0 0 16 16"><path fill="#ccc" d="M9.18 6.69l-1.18-3.633-1.18 3.633h-3.82l3.09 2.245-1.18 3.633 3.09-2.245 3.09 2.245-1.18-3.633 3.09-2.245zM14.5 1h-13c-.276 0-.5.224-.5.5v13c0 .276.224.5.5.5h13c.276 0 .5-.224.5-.5v-13c0-.276-.224-.5-.5-.5zm-.5 12.75c0 .138-.112.25-.25.25h-11.5c-.138 0-.25-.112-.25-.25v-11.5c0-.138.112-.25.25-.25h11.5c.138 0 .25.112.25.25v11.5z"/></svg>

<svg xmlns="http://www.w3.org/2000/svg" viewBox="0 0 16 16"><path fill="#ccc" d="M9.18 6.69 8 3.057 6.82 6.69H3l3.09 2.245-1.18 3.633L8 10.323l3.09 2.245-1.18-3.633L13 6.69zM14.5 1h-13a.5.5 0 0 0-.5.5v13a.5.5 0 0 0 .5.5h13a.5.5 0 0 0 .5-.5v-13a.5.5 0 0 0-.5-.5zM14 13.75a.25.25 0 0 1-.25.25H2.25a.25.25 0 0 1-.25-.25V2.25A.25.25 0 0 1 2.25 2h11.5a.25.25 0 0 1 .25.25v11.5z"/></svg>
